X: 4
T: Snug In The Blanket
R: jig
M: 6/8
L: 1/8
K: Gmaj
|:(3.A.c.A B cBc|(3EEE E c2A|B2G AFD|GFG BAG||A2B cBc|(3EEE Ec2A|(3.B.c.d B cAF|G2A BAG:||:FGA AFd|AFd AFd|FGA AFD|~G3 BAG||FGA AFd|AFd ABc|(3.B.c.d B cAF|~G2A BAG:||:FGA AFA|(3DDD D AFA|(3DDDD AFD|(3EEE E GFE||FGA AFA|(3DDD D ABc|(3.B.c.d B cAF|G3 G2z:|


Tune 1747	Setting 15184

